X:1
T:To Love Someone More Dearly
T:Emma Louise Hindle Ashford, 1903
T:To Love Someone More Dearly
T:Public Domain
T:Public Domain
C:Emma Louise Hindle Ashford, 1903
Z:Public Domain
%%score ( 1 2 ) ( 3 4 )
L:1/8
M:4/4
K:Eb
V:1 treble 
V:2 treble 
V:3 bass 
V:4 bass 
V:1
 [EG] | [EG][EG][EG][B,G] [_CF][CF] [CG]>[CF] | (B,2 ^C2 [DB]3) [DA] | %3
w: 1.~To|love some- one more dear- ly ev- ery|day, * * To|
w: 2.~To|fol- low truth as blind men long for|light, * * To|
w: 3.~And|then my Sav- ior by and by to|meet, * * When|
 [EG][EG][EG][EG] [G=A][GA] [^FB]>[FA] | [Gd]4- [Gd]3 [AB] | [Ge]>[Ge] [Ge][Ge] [Fd][FG][FG][FG] | %6
w: a wan- dering child to find his way,|To * pon-|der o’er a no- ble thought and pray,|
w: my best from dawn of day till night,|To * keep|my heart fit for His ho- ly sight,|
w: hath made her task on earth com- plete,|And * lay|my hom- age at the Mas- ter’s feet,|
 [=Ec]4- [Ec][Ec][Ec][Ec] | [Ec]>[EF] [EF]3 [DB][DB][DB] | [_DB]>[DE] [DE]6 | [CE]4 [DF]3 E | %10
w: And * smile when even-|ing falls, And smile when even-|ing falls: This|is my task.|
w: And * an- swer when|He calls, And an- swer when|He calls: This|is my task.|
w: With- * in the jas-|per walls, With- in the jas-|per walls: This|crowns my task.|
 [EG]6 |] %11
w: |
w: |
w: |
V:2
 x | x8 | B4- x4 | x8 | x8 | x8 | x8 | x8 | x8 | x7 E | x6 |] %11
w: ||help|||||||||
w: ||do|||||||||
w: ||faith|||||||||
V:3
 [E,B,] | [E,B,][E,B,][E,B,][E,B,] [E,A,][E,A,] [E,A,]>[E,A,] | (E,2 =E,2) [F,A,]3 [B,,B,] | %3
 [E,B,][E,B,][E,B,][E,B,] [C,E][C,E] [D,C]>[D,C] | (G,,2 G,2 [F,B,]3) [F,B,] | %5
 [E,B,]>[E,B,] [E,B,][E,B,] [G,=B,][G,B,][G,B,][G,B,] | [C,B,]4- [C,B,][C,B,][C,B,][C,B,] | %7
 [F,=A,]>[F,A,] [F,A,]3 [B,,_A,][B,,A,][B,,A,] | [E,G,]>[E,G,] [E,G,]6 | [F,A,]4 [B,,A,]3 [E,G,] | %10
 [E,B,]6 |] %11
V:4
 x | x8 | G,4 x4 | x8 | B,4- x4 | x8 | x8 | x8 | x8 | x8 | x6 |] %11

